Adwaita++/places/16/folder-visiting.svg

<svg height="16" width="16" xmlns="http://www.w3.org/2000/svg">
  <path d="m1 2v11s0 1 1 1h12s1 0 1-1v-9c0-1-1-1-1-1h-5l-2-2h-5s-1 0-1 1z" fill="#474747"/>
  <path d="m2 1s-.0916.0089-.2109.0332l13.2109 7.627v-2l-9.8047-5.6602zm-1 1.5781v2l14 8.0819v-2zm11.125.4219 2.875 1.6602v-.6602c0-1-1-1-1-1zm-11.125 3.5781v2l9.393 5.4219h3.462zm0 3.9999v2l2.4648 1.422h3.4629z" opacity=".2"/>
</svg>

<svg xmlns="http://www.w3.org/2000/svg" width="16" height="16" version="1.1">
 <defs>
  <style id="current-color-scheme" type="text/css">
   .ColorScheme-Text { color:#474747; } .ColorScheme-Highlight { color:#4285f4; }
  </style>
 </defs>
 <path style="fill:currentColor" class="ColorScheme-Text" d="M 1,2 V 13 C 1,13 1,14 2,14 H 14 C 14,14 15,14 15,13 V 4 C 15,3 14,3 14,3 H 9 L 7,1 H 2 C 2,1 1,1 1,2 Z"/>
 <path style="opacity:0.2" d="M 2 1 C 2 1 1.9084 1.0089 1.7891 1.0332 L 15 8.6602 L 15 6.6602 L 5.1953 1 L 2 1 z M 1 2.5781 L 1 4.5781 L 15 12.66 L 15 10.66 L 1 2.5781 z M 12.125 3 L 15 4.6602 L 15 4 C 15 3 14 3 14 3 L 12.125 3 z M 1 6.5781 L 1 8.5781 L 10.393 14 L 13.855 14 L 1 6.5781 z M 1 10.578 L 1 12.578 L 3.4648 14 L 6.9277 14 L 1 10.578 z"/>
</svg>
